Sources/FrostedUI/Resources/Icons.xcassets/messageSlashed12.imageset/message-slashed-12.svg

<svg width="12" height="12" viewBox="0 0 12 12" fill="none" xmlns="http://www.w3.org/2000/svg" data-fui-icon="true">
  <path
    d="M10.7197 0.219727C11.0126 -0.0731667 11.4874 -0.0731667 11.7803 0.219727C12.0732 0.51262 12.0732 0.98738 11.7803 1.28027L11.1543 1.90527C11.3001 2.18301 11.375 2.52034 11.375 2.87598V8.12598C11.375 9.09219 10.5912 9.87598 9.625 9.87598H7.77832L6.79883 10.6875H6.79785C6.36174 11.0484 5.74337 11.0689 5.28711 10.751L5.19824 10.6826L4.23535 9.875H3.18555L1.28027 11.7803C0.98738 12.0732 0.51262 12.0732 0.219727 11.7803C-0.0731667 11.4874 -0.0731667 11.0126 0.219727 10.7197L10.7197 0.219727ZM4.16699 9.81836L4.16504 9.81641L4.16309 9.81543C4.16433 9.81648 4.16573 9.81734 4.16699 9.81836ZM4.64453 8.41504C4.82017 8.46126 4.98529 8.54723 5.12793 8.66699L6.00195 9.39844L6.89062 8.66309L6.89258 8.66211C7.11476 8.47943 7.39611 8.37598 7.68848 8.37598H9.625C9.76279 8.37598 9.875 8.26376 9.875 8.12598V3.18555L4.64453 8.41504ZM7.21875 1.125C7.63296 1.125 7.96875 1.46079 7.96875 1.875C7.96875 2.28921 7.63296 2.625 7.21875 2.625H2.375C2.23721 2.625 2.125 2.73721 2.125 2.875V7.375C2.125 7.78921 1.78921 8.125 1.375 8.125C0.960786 8.125 0.625 7.78921 0.625 7.375V2.875C0.625 1.90879 1.40879 1.125 2.375 1.125H7.21875Z"
    fill="currentColor"
  />
</svg>

<svg xmlns="http://www.w3.org/2000/svg" width="12" height="12" fill="none" data-fui-icon="true" viewBox="0 0 12 12"><path fill="currentColor" d="M10.72.22a.75.75 0 1 1 1.06 1.06l-.626.625a2.1 2.1 0 0 1 .221.971v5.25a1.75 1.75 0 0 1-1.75 1.75H7.778l-.98.812a1.25 1.25 0 0 1-1.51.063l-.09-.068-.963-.808h-1.05L1.28 11.78a.75.75 0 1 1-1.06-1.06zM4.167 9.818l-.002-.002h-.002zm.478-1.403c.175.046.34.132.483.252l.874.731.889-.735h.002c.222-.184.503-.287.795-.287h1.937a.25.25 0 0 0 .25-.25v-4.94zm2.574-7.29a.75.75 0 0 1 0 1.5H2.375a.25.25 0 0 0-.25.25v4.5a.75.75 0 0 1-1.5 0v-4.5c0-.966.784-1.75 1.75-1.75z"/></svg>
